; Generated by compas_am vX.X
; LAYER HEIGHT: 
M201 X1000 Y1000 Z1000 E5000 ; sets max acceleration mm/sec^2
M203 X200 Y200 Z12 E120 ; sets max feedrates, mm/sec
M83; extruder relative mode
M104 S210 ; set extruder temperature
M140 S60 ; set bed temperature
M190 S60 ; wait for bed temperature
G28 ; home all axes without mesh bed level
G80 ; mesh bed leveling
G1 Y-3.0 F1000.0 ; go outside print area
G92 E0 ; set filament pos to 0
G1 X60.0 E9.0 F1000 ; intro line
M73 P0 R0 ; set progress to 0 and time remaining to total time
M73 Q0 R0 ; set progress to 0 and time remaining to total time for quiet mode
G1 X100 E12.5 F1000 ; intro line
G92 E0 ; set filament pos to 0
G21 ; set units to millimeters
G90 ; use absolute coordinates
M83 ; use relative distances for extrusion
G1 F3000 ; set print speed
G1 X122.86296536684593 Y105.02336970507058 Z0.010000000000000009 E0
G1 X122.86296536684593 Y107.17794871330261 Z0.010000000000000009 E0
G1 X122.88234577829456 Y107.17794871330261 Z0.01 E0
G1 X122.89435865493775 Y107.17794871330261 Z0.01 E0
G1 X125.93063061895815 Y107.17794871330261 Z0.01 E0
G1 X125.94264347505636 Y107.17794871330261 Z0.010000000000000009 E0
G1 X125.96054352556685 Y107.17794871330261 Z0.01 E0
G1 X125.96054352556685 Y105.02403745002701 Z0.01 E0
G1 X125.96054352556685 Y104.97596022736504 Z0.01 E0
G1 X125.96054352556685 Y102.82205080986023 Z0.01 E0
G1 X125.94133007693863 Y102.82205080986023 Z0.009999999999999787 E0
G1 X125.93162008315 Y102.82205080986023 Z0.009999999999999787 E0
G1 X122.89211989299217 Y102.82205080986023 Z0.009999999999999787 E0
G1 X122.88240988259705 Y102.82205080986023 Z0.009999999999999787 E0
G1 X122.86296536684593 Y102.82205080986023 Z0.010000000000000009 E0
G1 X122.86296536684593 Y104.97662797174925 Z0.010000000000000009 E0
G1 X122.86296536684593 Y105.02336970507058 Z0.010000000000000009 E0
G1 X127.1779453754425 Y107.17794871330261 Z2.01 E0
G1 X127.92492758540206 Y107.17794871330261 Z2.01 E0
G1 X128.35236975112076 Y107.17794871330261 Z2.01 E0
G1 X130.35263475536203 Y107.17794871330261 Z2.01 E0
G1 X130.42724230025547 Y107.17794871330261 Z2.01 E0
G1 X130.56908868236877 Y107.17794871330261 Z2.01 E0
G1 X130.56908868236877 Y105.22660277493496 Z2.01 E0
G1 X130.56908868236877 Y104.77339507604322 Z2.01 E0
G1 X130.56908868236877 Y102.82205080986023 Z2.01 E0
G1 X130.42724230025547 Y102.82205080986023 Z2.01 E0
G1 X130.35263475536203 Y102.82205080986023 Z2.01 E0
G1 X128.35236975112076 Y102.82205080986023 Z2.01 E0
G1 X127.35227933911882 Y102.82205080986023 Z2.01 E0
G1 X127.04891584201508 Y102.82205080986023 Z2.01 E0
G1 X125.09720709049954 Y102.82205080986023 Z2.01 E0
G1 X124.78006295370683 Y102.82205080986023 Z2.01 E0
G1 X122.82835086428541 Y102.82205080986023 Z2.01 E0
G1 X122.50633223088927 Y102.82205080986023 Z2.01 E0
G1 X121.51487036829123 Y102.82205080986023 Z2.01 E0
G1 X120.9797136650348 Y102.82205080986023 Z2.01 E0
G1 X119.2626973986008 Y102.82205080986023 Z2.01 E0
G1 X119.20871267011165 Y102.82205080986023 Z2.01 E0
G1 X119.10579796752 Y102.82205080986023 Z2.01 E0
G1 X119.10579796752 Y104.84528888076692 Z2.01 E0
G1 X119.10579783203201 Y104.9999988283962 Z2.01 E0
G1 X119.10579796752 Y105.1547089086026 Z2.01 E0
G1 X119.10579796752 Y107.17794871330261 Z2.01 E0
G1 X119.20871267011165 Y107.17794871330261 Z2.01 E0
G1 X119.2626973986008 Y107.17794871330261 Z2.01 E0
G1 X120.9797136650348 Y107.17794871330261 Z2.01 E0
G1 X121.51487036829123 Y107.17794871330261 Z2.01 E0
G1 X122.82205319404602 Y107.17794871330261 Z2.01 E0
G1 X122.82205319404602 Y107.6034475337325 Z2.01 E0
G1 X124.48713240298089 Y107.6034475337325 Z2.01 E0
G1 X125.51286901420106 Y107.6034475337325 Z2.01 E0
G1 X127.1779453754425 Y107.6034475337325 Z2.01 E0
G1 X127.1779453754425 Y107.17794871330261 Z2.01 E0
G1 X125.00000114715658 Y111.19390590170123 Z4.01 E0
G1 X124.39250762030453 Y111.19390540526456 Z4.01 E0
G1 X122.82205319404602 Y111.19390540526456 Z4.01 E0
G1 X122.82205319404602 Y110.78979458847296 Z4.01 E0
G1 X122.82205319404602 Y110.57781459233436 Z4.01 E0
G1 X122.82205319404602 Y109.06702573937892 Z4.01 E0
G1 X122.82205319404602 Y107.94436467462245 Z4.01 E0
G1 X122.82205319404602 Y107.17794871330261 Z4.01 E0
G1 X122.38572063270236 Y107.17794871330261 Z4.01 E0
G1 X120.85777939638251 Y107.17794871330261 Z4.01 E0
G1 X120.0082388225897 Y107.17794871330261 Z4.01 E0
G1 X119.21568122096 Y107.17794871330261 Z4.01 E0
G1 X117.79732030374551 Y107.17794871330261 Z4.01 E0
G1 X117.70477543389947 Y107.17794871330261 Z4.01 E0
G1 X117.70477543389947 Y107.08457754968384 Z4.01 E0
G1 X117.70477360832102 Y104.9999988283962 Z4.01 E0
G1 X117.70477543389947 Y102.9154218934656 Z4.01 E0
G1 X117.70477543389947 Y102.82205080986023 Z4.01 E0
G1 X117.79732030374551 Y102.82205080986023 Z4.01 E0
G1 X119.21568122096 Y102.82205080986023 Z4.01 E0
G1 X120.0082388225897 Y102.82205080986023 Z4.01 E0
G1 X120.85777939638251 Y102.82205080986023 Z4.01 E0
G1 X122.38572063270236 Y102.82205080986023 Z4.01 E0
G1 X122.82205319404602 Y102.82205080986023 Z4.01 E0
G1 X122.82205319404602 Y102.07368698719459 Z4.01 E0
G1 X122.82205319404602 Y101.15269283456615 Z4.01 E0
G1 X122.82205319404602 Y99.79479342258414 Z4.01 E0
G1 X122.82205319404602 Y99.55894132731204 Z4.01 E0
G1 X122.82205319404602 Y99.11053064286365 Z4.01 E0
G1 X124.28365267617451 Y99.11053064286365 Z4.01 E0
G1 X125.00000114715658 Y99.11053072128186 Z4.01 E0
G1 X125.71634839300724 Y99.11053064286365 Z4.01 E0
G1 X127.1779453754425 Y99.11053064286365 Z4.01 E0
G1 X127.1779453754425 Y99.55894132731204 Z4.01 E0
G1 X127.1779453754425 Y99.79479342258414 Z4.01 E0
G1 X127.1779453754425 Y101.15269283456615 Z4.01 E0
G1 X127.1779453754425 Y101.98276875997696 Z4.01 E0
G1 X127.1779453754425 Y102.82205080986023 Z4.01 E0
G1 X128.02728333285867 Y102.82205080986023 Z4.01 E0
G1 X128.66768472355355 Y102.82205080986023 Z4.01 E0
G1 X129.66345352570892 Y102.82205080986023 Z4.01 E0
G1 X130.49182616334886 Y102.82205080986023 Z4.01 E0
G1 X131.7652160583872 Y102.82205080986023 Z4.01 E0
G1 X132.06675687985307 Y102.82205080986023 Z4.01 E0
G1 X132.06675687985307 Y103.16009981207588 Z4.01 E0
G1 X132.06675687985307 Y106.8398994213993 Z4.01 E0
G1 X132.06675687985307 Y107.17794871330261 Z4.01 E0
G1 X131.7652160583872 Y107.17794871330261 Z4.01 E0
G1 X130.49182616334886 Y107.17794871330261 Z4.01 E0
G1 X129.66345352570892 Y107.17794871330261 Z4.01 E0
G1 X128.66768472355355 Y107.17794871330261 Z4.01 E0
G1 X127.46587599566315 Y107.17794871330261 Z4.01 E0
G1 X127.1779453754425 Y107.17794871330261 Z4.01 E0
G1 X127.1779453754425 Y108.04478766630477 Z4.01 E0
G1 X127.1779453754425 Y109.06702573937892 Z4.01 E0
G1 X127.1779453754425 Y110.57781459233436 Z4.01 E0
G1 X127.1779453754425 Y110.78979458847296 Z4.01 E0
G1 X127.1779453754425 Y111.19390540526456 Z4.01 E0
G1 X125.60749363504587 Y111.19390540526456 Z4.01 E0
G1 X125.00000114715658 Y111.19390590170123 Z4.01 E0
G1 X133.34270022160635 Y107.17794871330261 Z6.01 E0
G1 X133.0496797071309 Y107.17794871330261 Z6.01 E0
G1 X132.86712439065587 Y107.17794871330261 Z6.01 E0
G1 X131.22074111822593 Y107.17794871330261 Z6.01 E0
G1 X130.55641002644228 Y107.17794871330261 Z6.01 E0
G1 X128.99327238083214 Y107.17794871330261 Z6.01 E0
G1 X128.99327238083214 Y107.16073742204277 Z6.01 E0
G1 X128.99327238083214 Y104.9999988283962 Z6.01 E0
G1 X128.99327238083214 Y104.9827875518854 Z6.01 E0
G1 X128.99327238083214 Y102.82205080986023 Z6.01 E0
G1 X130.55641002644228 Y102.82205080986023 Z6.01 E0
G1 X131.22074111822593 Y102.82205080986023 Z6.01 E0
G1 X132.86712439065587 Y102.82205080986023 Z6.01 E0
G1 X133.0496797071309 Y102.82205080986023 Z6.01 E0
G1 X133.34270022160635 Y102.82205080986023 Z6.01 E0
G1 X133.34270022160635 Y104.54430383257437 Z6.01 E0
G1 X133.34270022160635 Y105.45569421472122 Z6.01 E0
G1 X133.34270022160635 Y107.17794871330261 Z6.01 E0
G1 X116.32349495583608 Y104.9999988283962 Z6.01 E0
G1 X116.32349495571938 Y104.97785481131201 Z6.01 E0
G1 X116.32349495571938 Y102.82205080986023 Z6.01 E0
G1 X116.36599923228688 Y102.82205080986023 Z6.01 E0
G1 X118.49417411764638 Y102.82205080986023 Z6.01 E0
G1 X119.22264977180834 Y102.82205080986023 Z6.01 E0
G1 X120.70939989738108 Y102.82205080986023 Z6.01 E0
G1 X120.70939989738108 Y102.86387572301902 Z6.01 E0
G1 X120.70939989738108 Y104.9999988283962 Z6.01 E0
G1 X120.70939989738108 Y105.04182377739643 Z6.01 E0
G1 X120.70939989738108 Y107.17794871330261 Z6.01 E0
G1 X119.22264977180834 Y107.17794871330261 Z6.01 E0
G1 X118.49417411764638 Y107.17794871330261 Z6.01 E0
G1 X116.36599923228688 Y107.17794871330261 Z6.01 E0
G1 X116.32349495571938 Y107.17794871330261 Z6.01 E0
G1 X116.32349495571938 Y105.02214286445647 Z6.01 E0
G1 X116.32349495583608 Y104.9999988283962 Z6.01 E0
G1 X127.1779453754425 Y112.7289083067273 Z6.01 E0
G1 X127.1779453754425 Y111.98696765758271 Z6.01 E0
G1 X127.1779453754425 Y110.78216097519595 Z6.01 E0
G1 X127.1779453754425 Y109.76097763802883 Z6.01 E0
G1 X127.1779453754425 Y109.18780009609316 Z6.01 E0
G1 X127.1779453754425 Y107.96724423227516 Z6.01 E0
G1 X127.1779453754425 Y106.90541069951945 Z6.01 E0
G1 X127.1779453754425 Y106.4373154154777 Z6.01 E0
G1 X127.1779453754425 Y104.37683953827599 Z6.01 E0
G1 X127.1779453754425 Y104.34943702510822 Z6.01 E0
G1 X127.1779453754425 Y102.75266964782304 Z6.01 E0
G1 X127.1779453754425 Y102.14684423436415 Z6.01 E0
G1 X127.1779453754425 Y101.0707359771577 Z6.01 E0
G1 X127.1779453754425 Y100.54987972260298 Z6.01 E0
G1 X127.1779453754425 Y99.48818070317827 Z6.01 E0
G1 X127.1779453754425 Y98.40332293414961 Z6.01 E0
G1 X127.1779453754425 Y97.46963967907101 Z6.01 E0
G1 X126.13121963584106 Y97.46963967907101 Z6.01 E0
G1 X125.00000114715658 Y97.469639802905 Z6.01 E0
G1 X123.868780723808 Y97.46963967907101 Z6.01 E0
G1 X122.82205319404602 Y97.46963967907101 Z6.01 E0
G1 X122.82205319404602 Y98.40332293414961 Z6.01 E0
G1 X122.82205319404602 Y99.48818070317827 Z6.01 E0
G1 X122.82205319404602 Y100.54987972260298 Z6.01 E0
G1 X122.82205319404602 Y101.0707359771577 Z6.01 E0
G1 X122.82205319404602 Y102.01999388731264 Z6.01 E0
G1 X122.82205319404602 Y102.7436070007314 Z6.01 E0
G1 X122.82205319404602 Y104.3543126199358 Z6.01 E0
G1 X122.82205319404602 Y104.37485034118797 Z6.01 E0
G1 X122.82205319404602 Y106.51993107168033 Z6.01 E0
G1 X122.82205319404602 Y106.88974546121966 Z6.01 E0
G1 X122.82205319404602 Y108.11435670030308 Z6.01 E0
G1 X122.82205319404602 Y109.18780009609316 Z6.01 E0
G1 X122.82205319404602 Y109.76097763802883 Z6.01 E0
G1 X122.82205319404602 Y110.78216097519595 Z6.01 E0
G1 X122.82205319404602 Y111.98696765758271 Z6.01 E0
G1 X122.82205319404602 Y112.7289083067273 Z6.01 E0
G1 X123.57061810909624 Y112.7289083067273 Z6.01 E0
G1 X125.00000114715658 Y112.72890947480256 Z6.01 E0
G1 X126.42938174062171 Y112.7289083067273 Z6.01 E0
G1 X127.1779453754425 Y112.7289083067273 Z6.01 E0
G1 X133.71105089820404 Y106.579229983268 Z8.01 E0
G1 X133.71105089820404 Y107.17794871330261 Z8.01 E0
G1 X133.01207945101757 Y107.17794871330261 Z8.01 E0
G1 X131.92560138647164 Y107.17794871330261 Z8.01 E0
G1 X130.81324512183005 Y107.17794871330261 Z8.01 E0
G1 X130.67626617806465 Y107.17794871330261 Z8.01 E0
G1 X130.62099388953567 Y107.17794871330261 Z8.01 E0
G1 X130.49094097461534 Y107.17794871330261 Z8.01 E0
G1 X130.49094097461534 Y105.17977208974257 Z8.01 E0
G1 X130.49094097461534 Y104.9999988283962 Z8.01 E0
G1 X130.49094097461534 Y103.00182391715185 Z8.01 E0
G1 X130.49094097461534 Y102.82205080986023 Z8.01 E0
G1 X130.62099388953567 Y102.82205080986023 Z8.01 E0
G1 X130.67626617806465 Y102.82205080986023 Z8.01 E0
G1 X130.81324512183005 Y102.82205080986023 Z8.01 E0
G1 X131.92560138647164 Y102.82205080986023 Z8.01 E0
G1 X133.01207945101757 Y102.82205080986023 Z8.01 E0
G1 X133.71105089820404 Y102.82205080986023 Z8.01 E0
G1 X133.71105089820404 Y103.42076902682936 Z8.01 E0
G1 X133.71105089820404 Y106.579229983268 Z8.01 E0
G1 X125.00000114715658 Y113.71551669747987 Z8.01 E0
G1 X124.38499201772544 Y113.71551616598504 Z8.01 E0
G1 X122.82205319404602 Y113.71551616598504 Z8.01 E0
G1 X122.82205319404602 Y112.53503973318149 Z8.01 E0
G1 X122.82205319404602 Y111.22347624287579 Z8.01 E0
G1 X122.82205319404602 Y110.77452736191893 Z8.01 E0
G1 X122.82205319404602 Y109.85826232322728 Z8.01 E0
G1 X123.68353807815652 Y109.85826232322728 Z8.01 E0
G1 X125.00000114715658 Y109.85826232322728 Z8.01 E0
G1 X125.86148455791685 Y109.85826232322728 Z8.01 E0
G1 X127.1779453754425 Y109.85826232322728 Z8.01 E0
G1 X127.1779453754425 Y110.77452736191893 Z8.01 E0
G1 X127.1779453754425 Y111.22347624287579 Z8.01 E0
G1 X127.1779453754425 Y112.53503973318149 Z8.01 E0
G1 X127.1779453754425 Y113.71551616598504 Z8.01 E0
G1 X125.61500922477143 Y113.71551616598504 Z8.01 E0
G1 X125.00000114715658 Y113.71551669747987 Z8.01 E0
G1 X127.1779453754425 Y96.50805129047477 Z8.01 E0
G1 X127.1779453754425 Y97.40577171149462 Z8.01 E0
G1 X127.1779453754425 Y97.96506026966189 Z8.01 E0
G1 X127.1779453754425 Y98.99986549305187 Z8.01 E0
G1 X127.1779453754425 Y99.4174200790445 Z8.01 E0
G1 X127.1779453754425 Y100.39990377895235 Z8.01 E0
G1 X126.35809364841444 Y100.39990377895235 Z8.01 E0
G1 X125.00000114715658 Y100.39990377895235 Z8.01 E0
G1 X124.1801480179788 Y100.39990377895235 Z8.01 E0
G1 X122.82205319404602 Y100.39990377895235 Z8.01 E0
G1 X122.82205319404602 Y99.4174200790445 Z8.01 E0
G1 X122.82205319404602 Y98.99986549305187 Z8.01 E0
G1 X122.82205319404602 Y97.96506026966189 Z8.01 E0
G1 X122.82205319404602 Y97.40577171149462 Z8.01 E0
G1 X122.82205319404602 Y96.50805129047477 Z8.01 E0
G1 X123.60390041855975 Y96.50805129047477 Z8.01 E0
G1 X126.3960994880791 Y96.50805129047477 Z8.01 E0
G1 X127.1779453754425 Y96.50805129047477 Z8.01 E0
G1 X116.22720881659839 Y104.9999988283962 Z8.01 E0
G1 X116.22720880877024 Y103.51463340828525 Z8.01 E0
G1 X116.22720880877024 Y102.82205080986023 Z8.01 E0
G1 X119.07828963932562 Y102.82205080986023 Z8.01 E0
G1 X119.19102793154725 Y102.82205080986023 Z8.01 E0
G1 X119.22961832265666 Y102.82205080986023 Z8.01 E0
G1 X119.308377672403 Y102.82205080986023 Z8.01 E0
G1 X119.308377672403 Y104.88683948583835 Z8.01 E0
G1 X119.308377672403 Y104.9999988283962 Z8.01 E0
G1 X119.308377672403 Y107.06478927377401 Z8.01 E0
G1 X119.308377672403 Y107.17794871330261 Z8.01 E0
G1 X119.22961832265666 Y107.17794871330261 Z8.01 E0
G1 X119.19102793154725 Y107.17794871330261 Z8.01 E0
G1 X119.07828963932562 Y107.17794871330261 Z8.01 E0
G1 X116.22720880877024 Y107.17794871330261 Z8.01 E0
G1 X116.22720880877024 Y106.48536552137597 Z8.01 E0
G1 X116.22720881659839 Y104.9999988283962 Z8.01 E0
G1 X125.41687128549027 Y96.1044737951198 Z10.01 E0
G1 X127.1779453754425 Y96.1044737951198 Z10.01 E0
G1 X127.1779453754425 Y98.16043793658604 Z10.01 E0
G1 X127.1779453754425 Y98.63734468818657 Z10.01 E0
G1 X127.1779453754425 Y99.22209760374109 Z10.01 E0
G1 X126.06419745232417 Y99.22209760374109 Z10.01 E0
G1 X125.00000114715658 Y99.22209760374109 Z10.01 E0
G1 X123.88625131925315 Y99.22209760374109 Z10.01 E0
G1 X122.82205319404602 Y99.22209760374109 Z10.01 E0
G1 X122.82205319404602 Y98.63734468818657 Z10.01 E0
G1 X122.82205319404602 Y98.16043793658604 Z10.01 E0
G1 X122.82205319404602 Y96.1044737951198 Z10.01 E0
G1 X124.58313029587158 Y96.1044737951198 Z10.01 E0
G1 X125.41687128549027 Y96.1044737951198 Z10.01 E0
G1 X116.13092266994393 Y107.17794871330261 Z10.01 E0
G1 X117.50925294970001 Y107.17794871330261 Z10.01 E0
G1 X119.13910674280471 Y107.17794871330261 Z10.01 E0
G1 X119.13910674280471 Y106.31226757556396 Z10.01 E0
G1 X119.13910674280471 Y104.9999988283962 Z10.01 E0
G1 X119.13910674280471 Y104.13431843249359 Z10.01 E0
G1 X119.13910674280471 Y102.82205080986023 Z10.01 E0
G1 X117.50925294970001 Y102.82205080986023 Z10.01 E0
G1 X116.13092266994393 Y102.82205080986023 Z10.01 E0
G1 X116.13092266994393 Y103.59268949102268 Z10.01 E0
G1 X116.13092267736072 Y104.9999988283962 Z10.01 E0
G1 X116.13092266994393 Y106.40730937174916 Z10.01 E0
G1 X116.13092266994393 Y107.17794871330261 Z10.01 E0
G1 X127.1779453754425 Y113.82101016087817 Z10.01 E0
G1 X127.1779453754425 Y113.74909336424018 Z10.01 E0
G1 X127.1779453754425 Y110.81282760521056 Z10.01 E0
