; Generated by compas_am vX.X
; LAYER HEIGHT: 
M201 X1000 Y1000 Z1000 E5000 ; sets max acceleration mm/sec^2
M203 X200 Y200 Z12 E120 ; sets max feedrates, mm/sec
M83; extruder relative mode
M104 S210 ; set extruder temperature
M140 S60 ; set bed temperature
M190 S60 ; wait for bed temperature
G28 ; home all axes without mesh bed level
G80 ; mesh bed leveling
G1 Y-3.0 F1000.0 ; go outside print area
G92 E0 ; set filament pos to 0
G1 X60.0 E9.0 F1000 ; intro line
M73 P0 R0 ; set progress to 0 and time remaining to total time
M73 Q0 R0 ; set progress to 0 and time remaining to total time for quiet mode
G1 X100 E12.5 F1000 ; intro line
G92 E0 ; set filament pos to 0
G21 ; set units to millimeters
G90 ; use absolute coordinates
M83 ; use relative distances for extrusion
G1 F3000 ; set print speed
G1 X-2.133336284155054 Y0.02109709917458069 Z-18.262216796875 E0
G1 X-2.133336284155054 Y2.175676107406616 Z-18.262216796875 E0
G1 X-2.1139558727064065 Y2.175676107406616 Z-18.262216796875 E0
G1 X-2.101942996063229 Y2.175676107406616 Z-18.262216796875 E0
G1 X0.934328967957166 Y2.175676107406616 Z-18.262216796875 E0
G1 X0.9463418240553814 Y2.175676107406616 Z-18.262216796875 E0
G1 X0.9642418745658796 Y2.175676107406616 Z-18.262216796875 E0
G1 X0.9642418745658796 Y0.021764844131013077 Z-18.262216796875 E0
G1 X0.9642418745658796 Y-0.02631237853096793 Z-18.262216796875 E0
G1 X0.9642418745658796 Y-2.1802217960357666 Z-18.262216796875 E0
G1 X0.9450284259376571 Y-2.1802217960357666 Z-18.262216796875 E0
G1 X0.9353184321490212 Y-2.1802217960357666 Z-18.262216796875 E0
G1 X-2.1041817580088034 Y-2.1802217960357666 Z-18.262216796875 E0
G1 X-2.1138917684039362 Y-2.1802217960357666 Z-18.262216796875 E0
G1 X-2.133336284155054 Y-2.1802217960357666 Z-18.262216796875 E0
G1 X-2.133336284155054 Y-0.02564463414675222 Z-18.262216796875 E0
G1 X-2.133336284155054 Y0.02109709917458069 Z-18.262216796875 E0
G1 X2.1816437244415283 Y5.2695052439482595 Z1.737783203125 E0
G1 X2.1816437244415283 Y3.4295942646584257 Z1.737783203125 E0
G1 X2.1816437244415283 Y3.046508641361338 Z1.737783203125 E0
G1 X2.1816437244415283 Y2.3977146720375986 Z1.737783203125 E0
G1 X2.1816437244415283 Y2.175676107406616 Z1.7377832031249998 E0
G1 X2.320247635990659 Y2.175676107406616 Z1.737783203125 E0
G1 X3.222915908892956 Y2.175676107406616 Z1.737783203125 E0
G1 X5.0447870353058555 Y2.175676107406616 Z1.737783203125 E0
G1 X5.0447870353058555 Y2.0409041531105214 Z1.737783203125 E0
G1 X5.0447889364599865 Y-0.00227377749979496 Z1.7377832031250002 E0
G1 X5.0447870353058555 Y-2.045449957231031 Z1.737783203125 E0
G1 X5.0447870353058555 Y-2.1802217960357666 Z1.737783203125 E0
G1 X3.2947358318916447 Y-2.1802217960357666 Z1.7377832031249998 E0
G1 X2.4288003968771945 Y-2.1802217960357666 Z1.737783203125 E0
G1 X2.1816437244415283 Y-2.1802217960357666 Z1.7377832031249998 E0
G1 X2.1816437244415283 Y-2.43946410305481 Z1.737783203125 E0
G1 X2.1816437244415283 Y-2.990224160192229 Z1.737783203125 E0
G1 X2.1816437244415283 Y-3.6583764315547387 Z1.737783203125 E0
G1 X2.1816437244415283 Y-5.095698488767855 Z1.737783203125 E0
G1 X-2.0300668943560853 Y-5.095698488767855 Z1.737783203125 E0
G1 X-2.1021576140090183 Y-5.095698488767855 Z1.737783203125 E0
G1 X-2.174248456954956 Y-5.095698488767855 Z1.737783203125 E0
G1 X-2.174248456954956 Y-3.6583764315547387 Z1.737783203125 E0
G1 X-2.174248456954956 Y-2.990224160192229 Z1.737783203125 E0
G1 X-2.174248456954956 Y-2.43946410305481 Z1.737783203125 E0
G1 X-2.174248456954956 Y-2.1802217960357666 Z1.7377832031249998 E0
G1 X-2.459674939410724 Y-2.1802217960357666 Z1.737783203125 E0
G1 X-2.7003855355920727 Y-2.1802217960357666 Z1.7377832031250002 E0
G1 X-2.79682993888855 Y-2.1802217960357666 Z1.7377832031250002 E0
G1 X-2.989718745481504 Y-2.1802217960357666 Z1.7377832031250002 E0
G1 X-3.3196320022874444 Y-2.1802217960357666 Z1.737783203125 E0
G1 X-5.16613644140105 Y-2.1802217960357666 Z1.737783203125 E0
G1 X-5.16613644140105 Y-0.5864009827974044 Z1.737783203125 E0
G1 X-5.16613644140105 Y-0.00227377749979496 Z1.737783203125 E0
G1 X-5.16613644140105 Y1.5915484015471295 Z1.737783203125 E0
G1 X-5.16613644140105 Y2.175676107406616 Z1.737783203125 E0
G1 X-3.4208132150132657 Y2.175676107406616 Z1.737783203125 E0
G1 X-3.037751927262418 Y2.175676107406616 Z1.7377832031249998 E0
G1 X-2.3895180769779603 Y2.175676107406616 Z1.737783203125 E0
G1 X-2.174248456954956 Y2.175676107406616 Z1.7377832031249998 E0
G1 X-2.174248456954956 Y2.3977146720375986 Z1.737783203125 E0
G1 X-2.174248456954956 Y3.046508641361338 Z1.737783203125 E0
G1 X-2.174248456954956 Y3.4295942646584257 Z1.737783203125 E0
G1 X-2.174248456954956 Y5.2695052439482595 Z1.737783203125 E0
G1 X-0.4940503407131025 Y5.2695052439482595 Z1.737783203125 E0
G1 X0.00369949615560472 Y5.2695052439482595 Z1.737783203125 E0
G1 X1.683894738847 Y5.2695052439482595 Z1.737783203125 E0
G1 X2.1816437244415283 Y5.2695052439482595 Z1.737783203125 E0
G1 X4.259738925993198 Y-0.00227377749979496 Z21.737783203125 E0
G1 X4.259738925993198 Y-1.2438725467800644 Z21.737783203125 E0
G1 X4.259741729329355 Y-2.1802217960357666 Z21.737783203125 E0
G1 X3.052198504029871 Y-2.1802217960357666 Z21.737783203125 E0
G1 X2.8571188336985487 Y-2.1802217960357666 Z21.737783203125 E0
G1 X2.534360376682767 Y-2.1802217960357666 Z21.737783203125 E0
G1 X1.8101233248317599 Y-2.1802217960357666 Z21.737783203125 E0
G1 X0.400822564051383 Y-2.1802217960357666 Z21.737783203125 E0
G1 X-0.3234163608362473 Y-2.1802217960357666 Z21.737783203125 E0
G1 X-1.7327189887356695 Y-2.1802217960357666 Z21.737783203125 E0
G1 X-2.4569578838925596 Y-2.1802217960357666 Z21.737783203125 E0
G1 X-2.8835777077736893 Y-2.1802217960357666 Z21.737783203125 E0
G1 X-4.05680064161702 Y-2.1802217960357666 Z21.737783203125 E0
G1 X-4.05680064161702 Y-1.09460004320929 Z21.737783203125 E0
G1 X-4.05680064161702 Y-0.00227377749979496 Z21.737783203125 E0
G1 X-4.05680064161702 Y1.0833489056392194 Z21.737783203125 E0
G1 X-4.05680064161702 Y2.175676107406616 Z21.737783203125 E0
G1 X-2.8835777077736893 Y2.175676107406616 Z21.737783203125 E0
G1 X-2.4569578838925596 Y2.175676107406616 Z21.737783203125 E0
G1 X-1.0476552559931376 Y2.175676107406616 Z21.737783203125 E0
G1 X-0.3234163608362473 Y2.175676107406616 Z21.737783203125 E0
G1 X0.400822564051383 Y2.175676107406616 Z21.737783203125 E0
G1 X1.8101233248317599 Y2.175676107406616 Z21.737783203125 E0
G1 X2.534360376682767 Y2.175676107406616 Z21.737783203125 E0
G1 X2.8571188336985487 Y2.175676107406616 Z21.737783203125 E0
G1 X3.052198504029871 Y2.175676107406616 Z21.737783203125 E0
G1 X4.259741729329355 Y2.175676107406616 Z21.737783203125 E0
G1 X4.259741729329355 Y1.8704280506033713 Z21.737783203125 E0
G1 X4.259738925993198 Y-0.00227377749979496 Z21.737783203125 E0
